src/assets/outline/RefreshLeftSquare.svg

<svg width="24" height="24" viewBox="0 0 24 24"  xmlns="http://www.w3.org/2000/svg">
<path d="M12 18.01C8.83 18.01 6.25 15.43 6.25 12.26C6.25 11.12 6.58 10.01 7.22 9.07C7.45 8.73 7.91999 8.63 8.25999 8.86C8.59999 9.09 8.7 9.56 8.47 9.9C8 10.6 7.75999 11.42 7.75999 12.26C7.75999 14.6 9.66999 16.51 12.01 16.51C14.35 16.51 16.26 14.6 16.26 12.26C16.26 9.92 14.35 8.01 12.01 8.01C11.51 8.01 11.03 8.08 10.56 8.22C10.17 8.34 9.75 8.12 9.62 7.72C9.5 7.32 9.72 6.9 10.12 6.78C10.73 6.59 11.36 6.5 12.01 6.5C15.18 6.5 17.76 9.08 17.76 12.25C17.76 15.42 15.17 18.01 12 18.01Z" />
<path d="M9.62009 8.39987C9.45009 8.39987 9.2701 8.33987 9.1301 8.21987C8.8201 7.94987 8.79009 7.46987 9.06009 7.15987L10.7301 5.24987C11.0001 4.93987 11.4801 4.89987 11.7901 5.17987C12.1001 5.44987 12.1301 5.92986 11.8601 6.23986L10.1901 8.14987C10.0301 8.30987 9.83009 8.39987 9.62009 8.39987Z" />
<path d="M11.5598 9.82004C11.4098 9.82004 11.2498 9.77004 11.1198 9.68004L9.17976 8.26004C8.84976 8.02004 8.76977 7.55004 9.01977 7.21004C9.25977 6.88004 9.72978 6.80005 10.0698 7.05005L12.0098 8.47004C12.3398 8.71004 12.4198 9.18004 12.1698 9.52004C12.0198 9.71004 11.7898 9.82004 11.5598 9.82004Z" />
<path d="M15 22.75H9C3.57 22.75 1.25 20.43 1.25 15V9C1.25 3.57 3.57 1.25 9 1.25H15C20.43 1.25 22.75 3.57 22.75 9V15C22.75 20.43 20.43 22.75 15 22.75ZM9 2.75C4.39 2.75 2.75 4.39 2.75 9V15C2.75 19.61 4.39 21.25 9 21.25H15C19.61 21.25 21.25 19.61 21.25 15V9C21.25 4.39 19.61 2.75 15 2.75H9Z" />
</svg>

<?xml version="1.0" encoding="UTF-8"?>
<svg width="24" height="24" viewBox="0 0 24 24" xmlns="http://www.w3.org/2000/svg">
 <path d="m12 18.01c-3.17 0-5.75-2.58-5.75-5.75 0-1.14 0.33-2.25 0.97-3.19 0.23-0.34 0.69999-0.44 1.04-0.21s0.44001 0.7 0.21001 1.04c-0.47 0.7-0.71001 1.52-0.71001 2.36 0 2.34 1.91 4.25 4.25 4.25 2.34 0 4.25-1.91 4.25-4.25s-1.91-4.25-4.25-4.25c-0.5 0-0.98 0.07-1.45 0.21-0.39 0.12-0.81-0.1-0.94-0.5-0.12-0.4 0.1-0.82 0.5-0.94 0.61-0.19 1.24-0.28 1.89-0.28 3.17 0 5.75 2.58 5.75 5.75s-2.59 5.76-5.76 5.76z"/>
 <path d="m9.6201 8.3999c-0.17 0-0.34999-0.06-0.48999-0.18-0.31-0.27-0.34001-0.75-0.07001-1.06l1.67-1.91c0.27-0.31 0.75-0.35 1.06-0.07 0.31 0.27 0.34 0.74999 0.07 1.06l-1.67 1.91c-0.16 0.16-0.36001 0.25-0.57001 0.25z"/>
 <path d="m11.56 9.82c-0.15 0-0.31-0.05-0.44-0.14l-1.94-1.42c-0.33-0.24-0.40999-0.71-0.15999-1.05 0.24-0.33 0.71001-0.40999 1.05-0.15999l1.94 1.42c0.33 0.24 0.41 0.71 0.16 1.05-0.15 0.19-0.38 0.3-0.61 0.3z"/>
 <path d="m15 22.75h-6c-5.43 0-7.75-2.32-7.75-7.75v-6c0-5.43 2.32-7.75 7.75-7.75h6c5.43 0 7.75 2.32 7.75 7.75v6c0 5.43-2.32 7.75-7.75 7.75zm-6-20c-4.61 0-6.25 1.64-6.25 6.25v6c0 4.61 1.64 6.25 6.25 6.25h6c4.61 0 6.25-1.64 6.25-6.25v-6c0-4.61-1.64-6.25-6.25-6.25h-6z"/>
</svg>
